src/assets/images/icons/shuffle.svg

<svg xmlns="http://www.w3.org/2000/svg" fill="none" viewBox="0 0 24 24"><path stroke="#181D27" stroke-linecap="round" stroke-linejoin="round" stroke-width="2" d="M16 3h5m0 0v5m0-5L4 20m17-4v5m0 0h-5m5 0-6-6M4 4l5 5"/></svg>

<svg width="24" height="24" viewBox="0 0 24 24" fill="none" xmlns="http://www.w3.org/2000/svg">
<path d="M16 3H21M21 3V8M21 3L4 20M21 16V21M21 21H16M21 21L15 15M4 4L9 9" stroke="#181D27" stroke-width="2" stroke-linecap="round" stroke-linejoin="round"/>
</svg>
